icons/themes/default/archive.svg

<svg viewBox="0 0 16 16" fill="none" xmlns="http://www.w3.org/2000/svg">
<path fill-rule="evenodd" clip-rule="evenodd" d="M2.13611 3.02605C2.11462 3.04754 2.06006 3.1204 2.06006 3.34V4.67C2.06006 4.88959 2.11462 4.96245 2.13611 4.98394C2.15761 5.00544 2.23046 5.06 2.45006 5.06H13.5701C13.7897 5.06 13.8625 5.00544 13.884 4.98394C13.9055 4.96245 13.9601 4.88959 13.9601 4.67V3.34C13.9601 3.1204 13.9055 3.04754 13.884 3.02605C13.8625 3.00456 13.7897 2.95 13.5701 2.95H2.45006C2.23046 2.95 2.15761 3.00456 2.13611 3.02605ZM1.42901 2.31894C1.70418 2.04377 2.07632 1.95 2.45006 1.95H13.5701C13.9438 1.95 14.3159 2.04377 14.5911 2.31894C14.8663 2.59412 14.9601 2.96626 14.9601 3.34V4.67C14.9601 5.04374 14.8663 5.41588 14.5911 5.69105C14.3307 5.9515 13.9833 6.04944 13.63 6.05918V11.79C13.63 12.3947 13.3898 12.9746 12.9622 13.4022C12.5346 13.8298 11.9547 14.07 11.35 14.07H4.67001C4.06532 14.07 3.48539 13.8298 3.05781 13.4022C2.63023 12.9746 2.39001 12.3947 2.39001 11.79V6.05918C2.03672 6.04943 1.68944 5.95148 1.42901 5.69105C1.15383 5.41588 1.06006 5.04374 1.06006 4.67V3.34C1.06006 2.96626 1.15383 2.59412 1.42901 2.31894ZM3.39001 6.06H12.63V11.79C12.63 12.1295 12.4952 12.455 12.2551 12.6951C12.0151 12.9351 11.6895 13.07 11.35 13.07H4.67001C4.33054 13.07 4.00496 12.9351 3.76492 12.6951C3.52487 12.455 3.39001 12.1295 3.39001 11.79V6.06ZM6.22998 7.73C5.95384 7.73 5.72998 7.95385 5.72998 8.23C5.72998 8.50614 5.95384 8.73 6.22998 8.73H9.78998C10.0661 8.73 10.29 8.50614 10.29 8.23C10.29 7.95385 10.0661 7.73 9.78998 7.73H6.22998Z" fill="currentColor"/>
</svg>

<svg xmlns="http://www.w3.org/2000/svg" fill="none" viewBox="0 0 16 16">
  <path fill="currentColor" fill-rule="evenodd" d="M2.136 3.026c-.021.022-.076.094-.076.314v1.33c0 .22.055.292.076.314.022.021.094.076.314.076h11.12c.22 0 .293-.055.314-.076.021-.022.076-.094.076-.314V3.34c0-.22-.055-.292-.076-.314-.021-.021-.094-.076-.314-.076H2.45c-.22 0-.292.055-.314.076ZM1.43 2.32c.275-.275.647-.369 1.021-.369h11.12c.374 0 .746.094 1.021.369.275.275.37.647.37 1.021v1.33c0 .374-.095.746-.37 1.021-.26.26-.608.358-.961.368v5.731a2.28 2.28 0 0 1-2.28 2.28H4.67a2.28 2.28 0 0 1-2.28-2.28V6.06c-.353-.01-.7-.109-.961-.369-.275-.275-.369-.647-.369-1.021V3.34c0-.374.094-.746.369-1.021ZM3.39 6.06h9.24v5.73a1.28 1.28 0 0 1-1.28 1.28H4.67a1.28 1.28 0 0 1-1.28-1.28V6.06Zm2.84 1.67a.5.5 0 1 0 0 1h3.56a.5.5 0 0 0 0-1H6.23Z" clip-rule="evenodd"/>
</svg>
